X: 40520
T: Tommy Hunt's Jig
R: slip jig
M: 9/8
K: Gmajor
|:dg ga fd|gB BA Bc|
dg ga fd|1 eA AB c/B/A:|2 e/f/g af g||
|:d>g g>a f>d|g>B B>A B>c|
d>g g>a f>d|1 e>A A>B (3cBA:|2 (3efg a>f g||
|:d2 g g2 a f2 d|g2 B B2 A B2 c|
d2 g g2 a f2 d|1 e2 A A2 B cBA:|2 efg a2 f g2||

